X:1
T: The Rose of Rochester
N:
C:aka "The Buttonhole"
S:Play  3  times
A:
O:
R:
M:6/8
K:D
I:speed 150
%W: A1
% voice 1 (1 lines, 39 notes)
K:D
M:6/8
L:1/16
A4 A2 A2 B2 c2 d4 A2 F2 G2 A2 B4 G2 E2 F2 G2 A4 F2 D6 |A2 B2 A2 A2 B2 c2 d2 c2 d2 B2 c2 d2 e2 c2 A2 E2 F2 ^G2 A4 A2 A6 |
%W: A2
% voice 1 (1 lines, 39 notes)
A4 A2 A2 B2 c2 d4 A2 F2 G2 A2 B4 G2 E2 F2 G2 A4 F2 D6 |A2 B2 A2 A2 B2 c2 d2 c2 d2 B2 c2 d2 e2 c2 A2 E2 F2 ^G2 A4 A2 A6 |
%W: B1
% voice 1 (1 lines, 42 notes)
a4 a2 a2 f2 d2 B2 c2 d2 e2 f2 g2 g4 g2 g2 e2 c2 A2 B2 c2 d2 e2 f2 |A4 A2 A2 G2 F2 B2 G2 E2 E2 F2 G2 A2 F2 D2 D2 E2 C2 D4 D2 D6 |
%W: B2
% voice 1 (1 lines, 42 notes)
a4 a2 a2 f2 d2 B2 c2 d2 e2 f2 g2 g4 g2 g2 e2 c2 A2 B2 c2 d2 e2 f2 |A4 A2 A2 G2 F2 B2 G2 E2 E2 F2 G2 A2 F2 D2 D2 E2 C2 D4 D2 D6 ||
